gama.ui.shared/icons_svg/dark/overlays/Gama Icons.svg

<svg height="16.5" viewBox="-158.524 -3115.908 16.5 16.5" width="16.5" xmlns="http://www.w3.org/2000/svg"><g fill="none"><path d="m-144.61725-3113.3148c-3.12419-3.1242-8.1895-3.1242-11.31369 0-3.12421 3.1242-3.12421 8.1896 0 11.3138 3.12419 3.124 8.1895 3.124 11.31369 0 3.12421-3.1242 3.12421-8.1896 0-11.3138m-3.07116.8008-7.44164 7.4418c-1.10842-2.0798-.78613-4.7218.96687-6.4748s4.39491-2.0753 6.47477-.967zm-5.17137 9.712 7.44164-7.4416c1.10842 2.0799.78613 4.7216-.96687 6.4746-1.75299 1.753-4.39492 2.0755-6.47477.967z" fill="#999"/><path d="m-144.61725-3113.3148c-3.12419-3.1242-8.1895-3.1242-11.31369 0-3.12421 3.1242-3.12421 8.1896 0 11.3138 3.12419 3.124 8.1895 3.124 11.31369 0 3.12421-3.1242 3.12421-8.1896 0-11.3138m-3.07116.8008-7.44164 7.4418c-1.10842-2.0798-.78613-4.7218.96687-6.4748s4.39491-2.0753 6.47477-.967zm-5.17137 9.712 7.44164-7.4416c1.10842 2.0799.78613 4.7216-.96687 6.4746-1.75299 1.753-4.39492 2.0755-6.47477.967z" stroke="#fff" stroke-linecap="round" stroke-linejoin="round" stroke-width=".5"/></g></svg>

<?xml version="1.0" encoding="UTF-8" standalone="no"?>
<!DOCTYPE svg PUBLIC "-//W3C//DTD SVG 1.1//EN" "http://www.w3.org/Graphics/SVG/1.1/DTD/svg11.dtd">
<svg xmlns="http://www.w3.org/2000/svg" xmlns:xl="http://www.w3.org/1999/xlink" version="1.1" xmlns:dc="http://purl.org/dc/elements/1.1/" viewBox="-158.5241 -3115.908 16.500009 16.500011" width="16.500009" height="16.500011">
  <defs/>
  <g id="SOURCES" stroke-opacity="1" fill="none" stroke="none" fill-opacity="1" stroke-dasharray="none">
    <title>SOURCES</title>
    <g id="SOURCES_Dark">
      <title>Dark</title>
      <g id="Graphic_11225">
        <path d="M -144.61725 -3113.3148 C -147.74144 -3116.439 -152.80675 -3116.439 -155.93094 -3113.3148 C -159.05515 -3110.1906 -159.05515 -3105.1252 -155.93094 -3102.001 C -152.80675 -3098.877 -147.74144 -3098.877 -144.61725 -3102.001 C -141.49304 -3105.1252 -141.49304 -3110.1906 -144.61725 -3113.3148 M -147.68841 -3112.514 L -155.13005 -3105.0722 C -156.23847 -3107.152 -155.91618 -3109.794 -154.16318 -3111.547 C -152.41018 -3113.3 -149.76827 -3113.6223 -147.68841 -3112.514 Z M -152.85978 -3102.802 L -145.41814 -3110.2436 C -144.30972 -3108.1637 -144.63201 -3105.522 -146.38501 -3103.769 C -148.138 -3102.016 -150.77993 -3101.6935 -152.85978 -3102.802 Z" fill="#999"/>
        <path d="M -144.61725 -3113.3148 C -147.74144 -3116.439 -152.80675 -3116.439 -155.93094 -3113.3148 C -159.05515 -3110.1906 -159.05515 -3105.1252 -155.93094 -3102.001 C -152.80675 -3098.877 -147.74144 -3098.877 -144.61725 -3102.001 C -141.49304 -3105.1252 -141.49304 -3110.1906 -144.61725 -3113.3148 M -147.68841 -3112.514 L -155.13005 -3105.0722 C -156.23847 -3107.152 -155.91618 -3109.794 -154.16318 -3111.547 C -152.41018 -3113.3 -149.76827 -3113.6223 -147.68841 -3112.514 Z M -152.85978 -3102.802 L -145.41814 -3110.2436 C -144.30972 -3108.1637 -144.63201 -3105.522 -146.38501 -3103.769 C -148.138 -3102.016 -150.77993 -3101.6935 -152.85978 -3102.802 Z" stroke="white" stroke-linecap="round" stroke-linejoin="round" stroke-width=".5"/>
      </g>
    </g>
  </g>
</svg>
